static/img/kroki/9aabc98cb0aa99464ffc71be53fa02fd.svg

<?xml version="1.0" encoding="us-ascii" standalone="no"?><svg xmlns="http://www.w3.org/2000/svg" xmlns:xlink="http://www.w3.org/1999/xlink" contentStyleType="text/css" height="374px" preserveAspectRatio="none" style="width:164px;height:374px;" version="1.1" viewBox="0 0 164 374" width="164px" zoomAndPan="magnify"><defs/><g><!--class gcp_resource--><g id="elem_gcp_resource"><rect codeLine="23" fill="#3D176E" height="39.7891" id="gcp_resource" rx="2.5" ry="2.5" style="stroke:#000D19;stroke-width:0.5;" width="150" x="7" y="167.79"/><ellipse cx="22" cy="187.6845" fill="#ADD1B2" rx="11" ry="11" style="stroke:#181818;stroke-width:1.0;"/><path d="M24.9688,193.3252 Q24.3906,193.622 23.75,193.7627 Q23.1094,193.9189 22.4063,193.9189 Q19.9063,193.9189 18.5781,192.2783 Q17.2656,190.622 17.2656,187.497 Q17.2656,184.372 18.5781,182.7158 Q19.9063,181.0595 22.4063,181.0595 Q23.1094,181.0595 23.75,181.2158 Q24.4063,181.372 24.9688,181.6689 L24.9688,184.3877 Q24.3438,183.8095 23.75,183.5439 Q23.1563,183.2627 22.5313,183.2627 Q21.1875,183.2627 20.5,184.3408 Q19.8125,185.4033 19.8125,187.497 Q19.8125,189.5908 20.5,190.6689 Q21.1875,191.7314 22.5313,191.7314 Q23.1563,191.7314 23.75,191.4658 Q24.3438,191.1845 24.9688,190.6064 L24.9688,193.3252 Z " fill="#000000"/><text fill="#D9B8FF" font-family="Helvetica" font-size="17" lengthAdjust="spacing" textLength="108" x="41" y="193.5698">gcp_resource</text></g><!--class gcp_route--><g id="elem_gcp_route"><rect codeLine="26" fill="#3D176E" height="39.7891" id="gcp_route" rx="2.5" ry="2.5" style="stroke:#000D19;stroke-width:0.5;" width="124" x="20" y="328.58"/><ellipse cx="35" cy="348.4745" fill="#ADD1B2" rx="11" ry="11" style="stroke:#181818;stroke-width:1.0;"/><path d="M37.9688,354.1152 Q37.3906,354.412 36.75,354.5527 Q36.1094,354.7089 35.4063,354.7089 Q32.9063,354.7089 31.5781,353.0683 Q30.2656,351.412 30.2656,348.287 Q30.2656,345.162 31.5781,343.5058 Q32.9063,341.8495 35.4063,341.8495 Q36.1094,341.8495 36.75,342.0058 Q37.4063,342.162 37.9688,342.4589 L37.9688,345.1777 Q37.3438,344.5995 36.75,344.3339 Q36.1563,344.0527 35.5313,344.0527 Q34.1875,344.0527 33.5,345.1308 Q32.8125,346.1933 32.8125,348.287 Q32.8125,350.3808 33.5,351.4589 Q34.1875,352.5214 35.5313,352.5214 Q36.1563,352.5214 36.75,352.2558 Q37.3438,351.9745 37.9688,351.3964 L37.9688,354.1152 Z " fill="#000000"/><text fill="#D9B8FF" font-family="Helvetica" font-size="17" lengthAdjust="spacing" textLength="82" x="54" y="354.3598">gcp_route</text></g><!--class resource--><g id="elem_resource"><rect codeLine="29" fill="#3D176E" height="39.7891" id="resource" rx="2.5" ry="2.5" style="stroke:#000D19;stroke-width:0.5;" width="113" x="25.5" y="7"/><ellipse cx="40.5" cy="26.8945" fill="#ADD1B2" rx="11" ry="11" style="stroke:#181818;stroke-width:1.0;"/><path d="M43.4688,32.5352 Q42.8906,32.832 42.25,32.9727 Q41.6094,33.1289 40.9063,33.1289 Q38.4063,33.1289 37.0781,31.4883 Q35.7656,29.832 35.7656,26.707 Q35.7656,23.582 37.0781,21.9258 Q38.4063,20.2695 40.9063,20.2695 Q41.6094,20.2695 42.25,20.4258 Q42.9063,20.582 43.4688,20.8789 L43.4688,23.5977 Q42.8438,23.0195 42.25,22.7539 Q41.6563,22.4727 41.0313,22.4727 Q39.6875,22.4727 39,23.5508 Q38.3125,24.6133 38.3125,26.707 Q38.3125,28.8008 39,29.8789 Q39.6875,30.9414 41.0313,30.9414 Q41.6563,30.9414 42.25,30.6758 Q42.8438,30.3945 43.4688,29.8164 L43.4688,32.5352 Z " fill="#000000"/><text fill="#D9B8FF" font-family="Helvetica" font-size="17" lengthAdjust="spacing" textLength="71" x="59.5" y="32.7798">resource</text></g><!--reverse link resource to gcp_resource--><g id="link_resource_gcp_resource"><path codeLine="32" d="M82,65.05 C82,95.57 82,136.9 82,167.46 " fill="none" id="resource-backto-gcp_resource" style="stroke:#FFAF37;stroke-width:2.0;"/><polygon fill="none" points="82,47.05,76,65.05,88,65.05,82,47.05" style="stroke:#FFAF37;stroke-width:2.0;"/></g><!--reverse link gcp_resource to gcp_route--><g id="link_gcp_resource_gcp_route"><path codeLine="33" d="M82,225.84 C82,256.36 82,297.69 82,328.25 " fill="none" id="gcp_resource-backto-gcp_route" style="stroke:#FFAF37;stroke-width:2.0;"/><polygon fill="none" points="82,207.84,76,225.84,88,225.84,82,207.84" style="stroke:#FFAF37;stroke-width:2.0;"/></g><!--SRC=[XPBDJiCm48JlVWfBFKTAg22DnAL4Gd2f4EME77lTM4cyqTgXAZ_lJaEXSXBQ7ZtpQNPsvT8euD2qViSRQ0eWnrnbR2j8D7n9XDiSQoG-qrheUJesxz7wYy1ADC0Ve7u3RwGO4o-baPK5v_XLODq9MMq8EwiEyPw4TNiBh0-el1REBRqdKtGUWZ8gAnPQZybnw6okalG69XYI0lf5uZXMIJP6Beuwk_UHM9jtu4buj1LwcDISZFYXphRiYQ3aPD4__sJ79w6KiHj-7MZFXqvaWGRwkXGAjpsjHUt2CSu30VfT2_baAyWMIgV_me-dO2Rxq_6DR5y977OaWNymzXNgkFyAeJW4Zw_RpoYA1abi41luVIBx1W00]--></g></svg>

<svg xmlns="http://www.w3.org/2000/svg" width="164" height="374" viewBox="0 0 164 374"><rect width="150" height="39.789" x="7" y="167.79" fill="#3D176E" rx="2.5" ry="2.5" style="stroke:#000d19;stroke-width:.5"/><circle cx="22" cy="187.685" r="11" fill="#ADD1B2" style="stroke:#181818;stroke-width:1"/><path d="M24.969 193.325q-.578.297-1.219.438-.64.156-1.344.156-2.5 0-3.828-1.64-1.312-1.657-1.312-4.782t1.312-4.781q1.328-1.656 3.828-1.656.703 0 1.344.156.656.156 1.219.453v2.719q-.625-.578-1.219-.844-.594-.281-1.219-.281-1.343 0-2.031 1.078-.687 1.062-.687 3.156t.687 3.172q.688 1.062 2.031 1.062.625 0 1.219-.265.594-.281 1.219-.86z"/><text x="41" y="193.57" fill="#D9B8FF" font-family="Helvetica" font-size="17" textLength="108">gcp_resource</text><rect width="124" height="39.789" x="20" y="328.58" fill="#3D176E" rx="2.5" ry="2.5" style="stroke:#000d19;stroke-width:.5"/><circle cx="35" cy="348.474" r="11" fill="#ADD1B2" style="stroke:#181818;stroke-width:1"/><path d="M37.969 354.115q-.578.297-1.219.438-.64.156-1.344.156-2.5 0-3.828-1.64-1.312-1.657-1.312-4.782t1.312-4.781q1.328-1.656 3.828-1.656.703 0 1.344.156.656.156 1.219.453v2.719q-.625-.579-1.219-.844-.594-.281-1.219-.281-1.343 0-2.031 1.078-.687 1.062-.687 3.156t.687 3.172q.688 1.062 2.031 1.062.625 0 1.219-.265.594-.281 1.219-.86z"/><text x="54" y="354.36" fill="#D9B8FF" font-family="Helvetica" font-size="17" textLength="82">gcp_route</text><rect width="113" height="39.789" x="25.5" y="7" fill="#3D176E" rx="2.5" ry="2.5" style="stroke:#000d19;stroke-width:.5"/><circle cx="40.5" cy="26.895" r="11" fill="#ADD1B2" style="stroke:#181818;stroke-width:1"/><path d="M43.469 32.535q-.578.297-1.219.438-.64.156-1.344.156-2.5 0-3.828-1.64-1.312-1.657-1.312-4.782t1.312-4.781q1.328-1.656 3.828-1.656.703 0 1.344.156.656.156 1.219.453v2.719q-.625-.578-1.219-.844-.594-.281-1.219-.281-1.343 0-2.031 1.078-.687 1.062-.687 3.156T39 29.879q.688 1.062 2.031 1.062.625 0 1.219-.265.594-.281 1.219-.86z"/><text x="59.5" y="32.78" fill="#D9B8FF" font-family="Helvetica" font-size="17" textLength="71">resource</text><path fill="none" d="M82 65.05v102.41m0-120.41-6 18h12zm0 178.79v102.41m0-120.41-6 18h12z" style="stroke:#ffaf37;stroke-width:2"/></svg>
